fs/people_team_add_24_filled.svg

<svg viewBox="0 0 24 24" fill="none" xmlns="http://www.w3.org/2000/svg" height="1em" width="1em">
  <path d="M17.5 12C20.5376 12 23 14.4624 23 17.5C23 20.5376 20.5376 23 17.5 23C14.4624 23 12 20.5376 12 17.5C12 14.4624 14.4624 12 17.5 12ZM17.5 13.9992L17.4101 14.0073C17.206 14.0443 17.0451 14.2053 17.0081 14.4094L17 14.4992L16.9996 16.9992L14.4977 17L14.4078 17.0081C14.2037 17.0451 14.0427 17.206 14.0057 17.4101L13.9977 17.5L14.0057 17.5899C14.0427 17.794 14.2037 17.9549 14.4078 17.9919L14.4977 18L17.0007 17.9992L17.0011 20.5035L17.0092 20.5934C17.0462 20.7975 17.2071 20.9584 17.4112 20.9954L17.5011 21.0035L17.591 20.9954C17.7951 20.9584 17.956 20.7975 17.9931 20.5934L18.0011 20.5035L18.0007 17.9992L20.5046 18L20.5944 17.9919C20.7985 17.9549 20.9595 17.794 20.9965 17.5899L21.0046 17.5L20.9965 17.4101C20.9595 17.206 20.7985 17.0451 20.5944 17.0081L20.5046 17L17.9996 16.9992L18 14.4992L17.9919 14.4094C17.9549 14.2053 17.794 14.0443 17.5899 14.0073L17.5 13.9992ZM14.254 10C15.0886 10 15.817 10.4543 16.2054 11.1292C13.2353 11.7297 11 14.3538 11 17.5C11 18.7892 11.3753 19.9907 12.0226 21.0012L12.003 21C9.51712 21 7.50193 18.9848 7.50193 16.499V12.25C7.50193 11.0074 8.50929 10 9.75193 10H14.254ZM7.40645 10.0003C6.89291 10.5355 6.56081 11.2462 6.50903 12.0335L6.50193 12.25V16.499C6.50193 17.3456 6.69319 18.1476 7.03487 18.864C6.70577 18.953 6.35899 19 6.00124 19C3.79142 19 2 17.2086 2 14.9988V12.25C2 11.0591 2.92516 10.0844 4.09595 10.0052L4.25 10L7.40645 10.0003ZM19.75 10C20.9926 10 22 11.0074 22 12.25L22.0008 12.8104C20.8328 11.6891 19.2469 11 17.5 11L17.2568 11.0045C17.1013 10.6296 16.8769 10.2894 16.5995 10.0003L19.75 10ZM18.5 4C19.8807 4 21 5.11929 21 6.5C21 7.88071 19.8807 9 18.5 9C17.1193 9 16 7.88071 16 6.5C16 5.11929 17.1193 4 18.5 4ZM12 3C13.6569 3 15 4.34315 15 6C15 7.65685 13.6569 9 12 9C10.3431 9 9 7.65685 9 6C9 4.34315 10.3431 3 12 3ZM5.5 4C6.88071 4 8 5.11929 8 6.5C8 7.88071 6.88071 9 5.5 9C4.11929 9 3 7.88071 3 6.5C3 5.11929 4.11929 4 5.5 4Z" fill="#212121"/>
</svg>

<svg viewBox="0 0 24 24" fill="none" xmlns="http://www.w3.org/2000/svg" height="1em" width="1em">
  <path d="M17.5 12a5.5 5.5 0 1 1 0 11 5.5 5.5 0 0 1 0-11Zm0 2-.09.007a.5.5 0 0 0-.402.402L17 14.5V17h-2.502l-.09.008a.5.5 0 0 0-.402.402l-.008.09.008.09a.5.5 0 0 0 .402.402l.09.008H17v2.503l.008.09a.5.5 0 0 0 .402.402l.09.008.09-.008a.5.5 0 0 0 .402-.402l.008-.09V18l2.504.001.09-.008a.5.5 0 0 0 .402-.402l.008-.09-.008-.09a.5.5 0 0 0-.403-.402l-.09-.008H18v-2.5l-.008-.09a.5.5 0 0 0-.402-.403L17.5 14Zm-3.246-4c.835 0 1.563.454 1.951 1.13A6.502 6.502 0 0 0 12.023 21l-.02-.001a4.501 4.501 0 0 1-4.501-4.501V12.25A2.25 2.25 0 0 1 9.752 10h4.502Zm-6.848 0a3.238 3.238 0 0 0-.897 2.034l-.007.216v4.249c0 .847.191 1.649.533 2.365A4.001 4.001 0 0 1 2 14.999V12.25a2.25 2.25 0 0 1 2.096-2.245L4.25 10h3.156Zm12.344 0A2.25 2.25 0 0 1 22 12.25v.56A6.478 6.478 0 0 0 17.5 11l-.243.005A3.25 3.25 0 0 0 16.599 10h3.151ZM18.5 4a2.5 2.5 0 1 1 0 5 2.5 2.5 0 0 1 0-5ZM12 3a3 3 0 1 1 0 6 3 3 0 0 1 0-6ZM5.5 4a2.5 2.5 0 1 1 0 5 2.5 2.5 0 0 1 0-5Z" fill="#212121"/>
</svg>
